!!!!SEGMENT: pl-sa--377-a-viii-17--009_anonim--jako-rolza.krn
!!!cenid: 17xx:1731
!!!COM: Anonim
!!!COM-rismID: pe30004985
!!!CDT:
!!!CNT:
!!!OTL: Jako róża
!!!PDT:
!!!AGN: Sacred
!!!SMS-siglum: PL-SA
!!!SMS-shelfmark: 377/A VIII 17
!!!SMS-shelfwork: 009 W
!!!SMS-variant:
!!!SMS-altvar:
!!!NIFC-rismSourceID: 1001077390
!!!NIFC-islandoraID:
!!!URL-pdf-islandora:
!!!URL-scan: https://bc.bdsandomierz.pl/dlibra/publication/1681/edition/1649/content @EN{Scan in the Sandomierz Diocese Digital Library} @PL{Skany w portalu Cyfrowa Biblioteka Diecezjalna w Sandomierzu}
!!!ONB-nifc: UWAGA: str. 10
!!!AIN: 1 soprn
!!!key:
**kern	**text	**text	**text	**text	**text	**text	**text	**text	**text	**text
*I"Canto.	*	*	*	*	*	*	*	*	*	*
*I'S	*	*	*	*	*	*	*	*	*	*
*Isoprn	*	*	*	*	*	*	*	*	*	*
*ICvox	*	*	*	*	*	*	*	*	*	*
*clefC1	*	*	*	*	*	*	*	*	*	*
*k[]	*	*	*	*	*	*	*	*	*	*
*g:	*	*	*	*	*	*	*	*	*	*
*M2/2	*	*	*	*	*	*	*	*	*	*
*met(c|)	*	*	*	*	*	*	*	*	*	*
=1	=1	=1	=1	=1	=1	=1	=1	=1	=1	=1
*2\right	*	*	*	*	*	*	*	*	*	*
!!LO:TX:t=P:problem:4,8,16\middle or left:global
2ee\	Ja-	Jak	Po-	Ro-	We-	Mat-	We-	Kto-	Sie-	Te
4cc\	-ko	Ma-	-czę-	-zu-	-sel	-kąs	-ſel	-ras	-dmio-	siedm
4dd\	ro-	-ry-	-cie	-mem	się	Bo-	się	ieſt	-ro	ra-
=2	=2	=2	=2	=2	=2	=2	=2	=2	=2	=2
4ee\	-za	-a	two-	ia-	od	-ga	Pan-	ca-	Swie-	-do-
4cc\	mię-	mię-	-ie	-ſnym	A-	od	-no	-łą	-ce	-sci
4gg\	-dzy	-dzÿ	bez	to	-nio-	wie-	z two-	w Swię-	ia-	cie-
4gg\	ko-	lu-	grze-	byc	-ła	-kow	-ieÿ	-tey	-sne	-bie
=3	=3	=3	=3	=3	=3	=3	=3	=3	=3	=3
4ff\	-lą-	-dzkiem	-chu	wy-	poz-	na-	zu-	Swey	go-	we-
4ee\	-cem	na-	być	-zna-	-dro-	-zna-	-peł-	pło-	-re-	-ſe-
2dd\	gło-	-ro-	zna-	-wa-	-wio-	-czo-	-no-	-dno-	-ią-	-lą-
=4	=4	=4	=4	=4	=4	=4	=4	=4	=4	=4
2cc\	-giem	-dem	-mÿ.	-mÿ	-na	-na	-sci	-sci.	-ce	-ce.
2r	.	.	.	.	.	.	.	.	.	.
=5||	=5||	=5||	=5||	=5||	=5||	=5||	=5||	=5||	=5||	=5||
4.dd\	.	Po-	.	Za-	.	A-	.	Tys	.	Radz-
8dd\	.	-u-	.	-lec	.	-bys	.	sa-	.	-ze
4dd\	.	-ſtała	.	nas	.	po-	.	-ma	.	przy-
4dd\	.	bez	.	Pan-	.	-ro-	.	Mat-	.	-iąc
=6	=6	=6	=6	=6	=6	=6	=6	=6	=6	=6
4ee\	.	zma-	.	-no	.	-dzi-	.	-ką	.	Pan-
4cc\	.	-zÿ	.	Sy-	.	-ła	.	y	.	-no
4dd\	.	Slicz-	.	-no-	.	Bo-	.	Pan-	.	na-
4cc\	.	-na	.	-wi	.	-ga	.	-ną	.	-ſze
!!LO:LB:g=original
=7	=7	=7	=7	=7	=7	=7	=7	=7	=7	=7
2b\	.	Pa-	.	Swo-	.	Pra-	.	zo-	.	Spie-
2a\	.	-nien-	.	-ie-	.	-we-	.	-ſta-	.	-wanie
=8	=8	=8	=8	=8	=8	=8	=8	=8	=8	=8
2g/	.	-ka	.	-mu	.	-go	.	-ła	.	I
2gg\	.	Ja-	.	Bo-	.	Nam	.	Coś	.	Wy-
=9	=9	=9	=9	=9	=9	=9	=9	=9	=9	=9
4ff\	.	-ko	.	-gu	.	ła-	.	Slu-	.	-chwa-
4ee\	.	Ju-	.	Wiecz-	.	-ſka-	.	-bo-	.	.
2ddT\	.	-trzen-	.	-ne-	.	-we-	.	-wa-	.	-la-
=10	=10	=10	=10	=10	=10	=10	=10	=10	=10	=10
2cc\	.	-ka	.	-mu	.	-go	.	-ła.	.	-nie.
2r	.	.	.	.	.	.	.	.	.	.
==	==	==	==	==	==	==	==	==	==	==
*-	*-	*-	*-	*-	*-	*-	*-	*-	*-	*-
!!!system-decoration: [(s1)]
!!!ENC: Katarzyna Serwa
!!!END: 2021-12-30
!!!ENC: Andrzej Gręziak
!!!END: 2021-01-11
!!!YEC: Copyright 2022 Narodowy Instytut Fryderyka Chopina (https://polishscores.org)
!!!YEM: Licence CC BY 4.0 (https://creativecommons.org/licenses/by/4.0)
